X:1
T:Title
%%score { ( 1 4 ) | ( 2 3 ) }
L:1/8
M:4/4
K:G
V:1 treble nm="Grand Piano"
V:4 treble 
V:2 bass 
V:3 bass 
V:1
 z4 z2[Q:1/4=100] GA | B2 B2 B2 AG | A2 E2 E2 E[DG] | F2 FG [FA]2 [GB][Ac] | B6 GA | B2 B2 B2 AG | %6
 [CEA]2 [G,CE]2 [G,CE]2 [G,E][G,DG] | [A,DF]2 [A,DF][B,DG] [DGB]2 [DFA]>[CFA] |[M:3/4] [B,G]6 | %9
[M:1/4] Bc |[M:4/4] d4 d4 | c4 c4 | B2 B2 BcdB | A4[K:bass][K:treble] d2 z2 | [DB]2 B>B B2 AG | %15
 [EA]2 E2 E2 EG | F2 FG [DGB]2 [CFA]2 |[M:3/4] [B,G]6 |] %18
V:2
 z4 z2 [G,B,][G,C] | [G,D]2 [G,D]2 [G,D]2 [G,C][G,B,] | [C,E,C]2 [C,G,C]2 [C,G,C]2 [C,G,][B,,G,] | %3
 [D,A,D]2 [D,A,D][D,B,D] [D,D]2 [D,D][D,D] | [G,DG]6 [G,B,D][G,CD] | %5
 [G,DG]2 [G,DG]2 [G,DG]2[K:bass] [G,CD][G,B,D] | C,2 C,2 C,2 C,B,, | D,2 D,D, D,2 D,>D, | %8
[M:3/4] G,,6 |[M:1/4] [G,D]2 |[M:4/4][K:treble] G4 G4[K:bass] | A,4 A,4 | %12
 [G,D]2 [G,D]2 [G,D][G,A,D][G,B,D][G,D] | D6 z2 | %14
 [G,,G,]2[K:treble] [G,D]>[G,B,D] [G,DG]2 [G,CD][G,B,D] | [C,C]2 [C,G,C]2 [C,G,C]2 [C,G,][C,G,D] | %16
 z2 .A,2 z4 |[M:3/4] G,,6 |] %18
V:3
 x8 | x8 | x8 | x8 | x8 | x6[K:bass] x2 | x8 | x8 |[M:3/4] x6 |[M:1/4] z A, | %10
[M:4/4][K:treble] [G,B,]2 G,2 [G,B,]A,B,[K:bass]G, | D,2 D,2 D,E,F,D, | x8 | %13
 [D,F,]2 D,D, [D,F,]C,[B,,G,][A,,F,] | x2[K:treble] x6 | x8 | [D,A,D]2 [D,D]-[D,B,D] D,2 D,2 | %17
[M:3/4] x6 |] %18
V:4
 x8 | x8 | x8 | x8 | x8 | x8 | x8 | x8 |[M:3/4] x6 |[M:1/4] x2 |[M:4/4] z2 B,2 z CDB, | %11
 F2 F2 FGAF | x8 | z2[K:bass] F,F,[K:treble] z A,[Dd][Dc] | x8 | x8 | x8 |[M:3/4] x6 |] %18

